src/icons/solid/symbols/table.svg

<svg width="24" height="24" viewBox="0 0 24 24" fill="none" xmlns="http://www.w3.org/2000/svg">
<g clip-path="url(#clip0_4922_1097)">
<path fill-rule="evenodd" clip-rule="evenodd" d="M22.7412 19.3575V14.3457C22.7476 14.3062 22.751 14.2657 22.751 14.2244C22.751 14.1831 22.7476 14.1426 22.7412 14.1031V7.15812C22.7476 7.11864 22.751 7.07812 22.751 7.03683V4.46435C22.751 4.41871 22.7469 4.37403 22.7391 4.33064C22.7001 3.1175 22.1313 2.39556 21.4788 2.0183C21.1654 1.83704 20.8587 1.74965 20.635 1.70653C20.5217 1.68469 20.4252 1.67336 20.3537 1.66745C20.3177 1.66448 20.2877 1.66284 20.2644 1.66195C20.2528 1.6615 20.2429 1.66123 20.2347 1.66108L20.2238 1.66093L20.2193 1.6609L20.2174 1.66089L20.2156 1.66103L3.77659 1.66089C3.17692 1.66089 2.68069 1.8382 2.29212 2.13778C1.91389 2.42939 1.67987 2.80377 1.53451 3.13999C1.3892 3.47608 1.3202 3.80188 1.28639 4.03652C1.26921 4.15576 1.2604 4.25648 1.25587 4.32988C1.2536 4.3667 1.25238 4.39699 1.25172 4.41968L1.2511 4.448L1.251 4.45772L1.25098 4.46142L1.25098 4.46299V4.46435V19.3575C1.25098 20.6516 1.83731 21.4126 2.51335 21.8035C2.82683 21.9848 3.13349 22.0722 3.3572 22.1153C3.47052 22.1371 3.56696 22.1484 3.63855 22.1544C3.67447 22.1573 3.70452 22.159 3.72775 22.1599C3.73938 22.1603 3.74934 22.1606 3.75751 22.1607L3.76842 22.1609L3.77285 22.1609L3.7748 22.1609L3.77659 22.1609H20.2156C20.8153 22.1609 21.3115 21.9836 21.7001 21.684C22.0783 21.3924 22.3123 21.018 22.4577 20.6818C22.603 20.3457 22.672 20.0199 22.7058 19.7853C22.723 19.666 22.7318 19.5653 22.7363 19.4919C22.7386 19.4551 22.7398 19.4248 22.7405 19.4021L22.7411 19.3738L22.7412 19.3641L22.7412 19.3604L22.7412 19.3588V19.3575ZM20.7842 20.4961C20.6734 20.5815 20.5037 20.6609 20.2156 20.6609H16.0776V14.9744H21.2412V19.3542L21.2411 19.3589C21.2409 19.3663 21.2404 19.3801 21.2392 19.3995C21.2368 19.4383 21.2317 19.4981 21.2211 19.5713C21.1995 19.7217 21.1575 19.9093 21.0809 20.0866C21.0043 20.2637 20.9054 20.4027 20.7842 20.4961ZM3.26421 20.505C3.05245 20.3825 2.75098 20.1168 2.75098 19.3575V14.9744H7.91455V20.6609H3.7842C3.78059 20.6608 3.77303 20.6604 3.76203 20.6595C3.73651 20.6573 3.69424 20.6526 3.64109 20.6424C3.53187 20.6213 3.39464 20.5804 3.26421 20.505ZM14.5776 20.6609V14.9744H9.41455V20.6609H14.5776ZM21.2412 13.4744H16.0776V7.78683H21.2412V13.4744ZM14.5776 13.4744V7.78683H9.41455V13.4744H14.5776ZM7.91455 7.78683V13.4744H2.75098V7.78683H7.91455Z" fill="#3C3B44"/>
</g>
<defs>
<clipPath id="clip0_4922_1097">
<rect width="24" height="24" fill="white"/>
</clipPath>
</defs>
</svg>

<svg xmlns="http://www.w3.org/2000/svg" width="24" height="24" fill="none" viewBox="0 0 24 24"><g clip-path="url(#a)"><path fill="currentColor" fill-rule="evenodd" d="M22.741 19.358v-5.012a.8.8 0 0 0 0-.243V7.158q.01-.06.01-.121V4.464a1 1 0 0 0-.012-.133c-.039-1.214-.608-1.935-1.26-2.313a2.7 2.7 0 0 0-1.244-.357H3.776c-.6 0-1.095.177-1.484.477a2.5 2.5 0 0 0-.757 1.002 3.6 3.6 0 0 0-.283 1.28v.028l-.001.01v14.9c0 1.294.586 2.055 1.262 2.445a2.7 2.7 0 0 0 1.245.358h16.458c.6 0 1.095-.177 1.484-.477.378-.292.612-.666.758-1.002a3.6 3.6 0 0 0 .283-1.28v-.045m-1.957 1.138c-.11.085-.28.165-.568.165h-4.138v-5.687h5.163v4.385l-.002.04a2.1 2.1 0 0 1-.158.687 1 1 0 0 1-.297.41m-17.52.009c-.212-.122-.513-.388-.513-1.147v-4.384h5.164v5.687h-4.13l-.023-.002a1.2 1.2 0 0 1-.498-.155m11.314.156v-5.687H9.415v5.687zm6.663-7.187h-5.163V7.787h5.163zm-6.663 0V7.787H9.415v5.687zM7.915 7.787v5.687H2.75V7.787z" clip-rule="evenodd"/></g><defs><clipPath id="a"><path fill="currentColor" d="M0 0h24v24H0z"/></clipPath></defs></svg>
